icons/fullscreen-line.svg

<svg width="24" height="24" fill="none" xmlns="http://www.w3.org/2000/svg"><g clip-path="url(#a)"><path d="M20 3h2v6h-2V5h-4V3h4ZM4 3h4v2H4v4H2V3h2Zm16 16v-4h2v6h-6v-2h4ZM4 19h4v2H2v-6h2v4Z" /></g><defs><clipPath id="a"><path fill="#fff" d="M0 0h24v24H0z"/></clipPath></defs></svg>

<svg xmlns="http://www.w3.org/2000/svg" width="24" height="24" fill="none"><g clip-path="url(#a)"><g><path fill="#121212" d="M20 3H22V9H20V5H16V3H20ZM4 3H8V5H4V9H2V3H4ZM20 19V15H22V21H16V19H20ZM4 19H8V21H2V15H4V19Z"/></g></g><defs><clipPath id="a"><rect width="24" height="24" fill="white"/></clipPath></defs></svg>
